public/assets/techs/tailwind.svg

<svg width="20" height="20" viewBox="0 0 20 20" fill="none" xmlns="http://www.w3.org/2000/svg">
<path d="M15.4167 7.92501C14.7917 7.70976 14.2401 7.32275 13.825 6.80834C13.3675 6.2352 12.785 5.77429 12.1221 5.46086C11.4591 5.14743 10.7332 4.98979 9.99999 5.00001C9.01363 4.93015 8.03714 5.23438 7.26499 5.8521C6.49285 6.46981 5.98169 7.3557 5.83332 8.33334C6.12555 7.84438 6.56537 7.46073 7.08948 7.23761C7.6136 7.01448 8.19499 6.96339 8.74999 7.09167C9.3739 7.31318 9.92464 7.70245 10.3417 8.21667C10.8016 8.78524 11.3852 9.24139 12.048 9.55041C12.7109 9.85944 13.4355 10.0132 14.1667 10C15.153 10.0699 16.1295 9.76564 16.9017 9.14792C17.6738 8.5302 18.185 7.64431 18.3333 6.66667C18.0464 7.16148 17.608 7.55093 17.0828 7.77751C16.5576 8.00409 15.9735 8.0558 15.4167 7.92501ZM4.58332 12.075C5.20828 12.2902 5.75992 12.6773 6.17499 13.1917C6.63245 13.7648 7.21494 14.2257 7.87791 14.5392C8.54087 14.8526 9.26674 15.0102 9.99999 15C10.9864 15.0699 11.9628 14.7656 12.735 14.1479C13.5071 13.5302 14.0183 12.6443 14.1667 11.6667C13.8744 12.1556 13.4346 12.5393 12.9105 12.7624C12.3864 12.9855 11.805 13.0366 11.25 12.9083C10.6261 12.6868 10.0753 12.2976 9.65832 11.7833C9.19712 11.2162 8.61328 10.761 7.95075 10.4521C7.28821 10.1432 6.56424 9.98866 5.83332 10C4.84696 9.93015 3.87048 10.2344 3.09833 10.8521C2.32618 11.4698 1.81502 12.3557 1.66666 13.3333C1.95358 12.8385 2.392 12.4491 2.91718 12.2225C3.44237 11.9959 4.0265 11.9442 4.58332 12.075Z" fill="#EEEEEE"/>
</svg>

<svg xmlns="http://www.w3.org/2000/svg" width="20" height="20" fill="none" xmlns:v="https://vecta.io/nano"><path d="M15.417 7.925c-.625-.215-1.177-.602-1.592-1.117A4.81 4.81 0 0 0 10 5c-.986-.07-1.963.234-2.735.852S5.982 7.356 5.833 8.333A2.69 2.69 0 0 1 8.75 7.092a3.6 3.6 0 0 1 1.592 1.125c.46.569 1.043 1.025 1.706 1.334a4.81 4.81 0 0 0 2.119.45c.986.07 1.963-.234 2.735-.852s1.283-1.504 1.432-2.481c-.287.495-.725.884-1.251 1.111s-1.109.278-1.666.147zm-10.833 4.15c.625.215 1.177.602 1.592 1.117A4.81 4.81 0 0 0 10 15c.986.07 1.963-.234 2.735-.852s1.283-1.504 1.432-2.481a2.69 2.69 0 0 1-2.917 1.242 3.6 3.6 0 0 1-1.592-1.125c-.461-.567-1.045-1.022-1.708-1.331S6.564 9.989 5.833 10c-.986-.07-1.963.234-2.735.852s-1.283 1.504-1.432 2.481c.287-.495.725-.884 1.251-1.111s1.109-.278 1.666-.148z" fill="#39b7d6"/></svg>
